apps/mobile/assets/icons/phosphor/device-mobile-camera.svg

<svg
  height="32"
  viewBox="0 0 256 256"
  width="32"
  xmlns="http://www.w3.org/2000/svg"
>
  <path
    d="m176 16h-96a24 24 0 0 0 -24 24v176a24 24 0 0 0 24 24h96a24 24 0 0 0 24-24v-176a24 24 0 0 0 -24-24zm8 200a8 8 0 0 1 -8 8h-96a8 8 0 0 1 -8-8v-176a8 8 0 0 1 8-8h96a8 8 0 0 1 8 8zm-44-156a12 12 0 1 1 -12-12 12 12 0 0 1 12 12z"
  />
</svg>

<svg xmlns="http://www.w3.org/2000/svg" width="32" height="32" fill="#000000" viewBox="0 0 256 256"><path d="M176,16H80A24,24,0,0,0,56,40V216a24,24,0,0,0,24,24h96a24,24,0,0,0,24-24V40A24,24,0,0,0,176,16Zm8,200a8,8,0,0,1-8,8H80a8,8,0,0,1-8-8V40a8,8,0,0,1,8-8h96a8,8,0,0,1,8,8ZM140,60a12,12,0,1,1-12-12A12,12,0,0,1,140,60Z"></path></svg>
